X:1
T:tico tico
T:tico tico
%%score { 1 2 }
L:1/8
Q:1/4=135
M:4/4
K:C
V:1 treble nm="Piano" snm="Pno."
V:2 treble-8 nm="Acoustic Guitar" snm="Guit."
V:1
 A^GAB dcBc | eAce g^f=fe | dcBA GFED | C2 z2 z2 z [EGc] | z4 z E^DE |"Am" F E2 A- AE^DE | %6
"E7" F E2 _A- AE^DE | FEdB ^GED_D |"Am" C4 z A_AG |"Dm" F A2 d- dcAF |"Am" E A2 c- ccBA | %11
"B7" BD^D^F AcBA |"E7" ^G4 z E^DE |"Am" F E2 A- AE^DE |"E7" F E2 ^G- GE^DE | FEdB ^GEDD | %16
"Am" C4 z A^G=G |"Dm" F A2 d- dcAF |"Am" E A2 c- ccB^A |"E7" BE^GB edcB |"Am" A4"G7" z BA_A | %21
"C" GCEG CEG^G |"G7" A2 F2 z BA_A | GB,DF B,DFG |"C" A2 E2 z ccc | cBBB- BAAA | A"G7"FFF- FBBB | %27
 BGGB AFFA |"C" G4 z BA_A | GCEG CEG^G |"G7" A2 F2 z BA_A | GB,DF B,DFG |"C" A2 E2"C7" z cB_B | %33
"F" A^GA"Fother"B dcBc |"C" eG"G"ce"A7" g^f=fe |"Dm" dcBA"G7" GFED |"C" C4 z2 z2 || %37
[K:A]"A" aAcg- gAcf | fAce- eAcf | fAce- eAcf |"E7" fcde- ecde | adeg- gdef | fBde- edef | %43
 adeg- gdef |"A" fAce- eAce | aAcg- gAcf | fAce- eAce |"A7" fec^A fecA |"D" B^ABc d z z2 | %49
"D" DCDE"Dother" FGAB |"A" cd"E"^de"Fother" fe=dc |"Bm" BAGF ED"G7"CB, |"A" A,4 z2 z [=cegb] |] %53
V:2
 F z [FAc][FAc] ^F z [FAce][FAce] | [ceg]2 [GBd]2 A z [A^ce^^f][Acef] | %2
 d z [dfa][dfa] G z [GBdf][GBdf] | c z [ceg][ceg] [ceg]4 | z8 | A z [Ace][Ace] A z [Ace][Ace] | %6
 E z [E^GBd][EGBd] E z [EGBd][EGBd] | E z [E^GBd][EGBd] E z [EGBd][EGBd] | %8
 A z [Ace][Ace] A z [Ace][Ace] | d z [dfa][dfa] d z [dfa][dfa] | A z [Ace][Ace] A z [Ace][Ace] | %11
 B z [B^d^fa][Bdfa] B z [Bdfa][Bdfa] | E z [E^GBd][EGBd] E z [EGBd][EGBd] | %13
 A z [Ace][Ace] A z [Ace][Ace] | E z [E^GBd][EGBd] E z [EGBd][EGBd] | %15
 E z [E^GBd][EGBd] E z [EGBd][EGBd] | A z [Ace][Ace] A z [Ace][Ace] | %17
 d z [dfa][dfa] d z [dfa][dfa] | A z [Ace][Ace] A z [Ace][Ace] | %19
 E z [E^GBd][EGBd] E z [EGBd][EGBd] | A z [Ace][Ace] G z [GBdf][GBdf] | %21
 c z [ceg][ceg] c z [ceg][ceg] | G z [GBdf][GBdf] G z [GBdf][GBdf] | %23
 G z [GBdf][GBdf] G z [GBdf][GBdf] | c z [ceg][ceg] c z [ceg][ceg] | %25
 c z [ceg][ceg] c z [ceg][ceg] | G z [GBdf][GBdf] G z [GBdf][GBdf] | %27
 G z [GBdf][GBdf] G z [GBdf][GBdf] | c z [ceg][ceg] c z [ceg][ceg] | %29
 c z [ceg][ceg] c z [ceg][ceg] | G z [GBdf][GBdf] G z [GBdf][GBdf] | %31
 G z [GBdf][GBdf] G z [GBdf][GBdf] | c z [ceg][ceg] [ceg^a] z [cega][cega] | %33
 F z [FAc][FAc] ^F z [FAce][FAce] | [ceg]2 [GBd]2 A z [A^ce^^f][Acef] | %35
 d z [dfa][dfa] G z [GBdf][GBdf] | c z [ceg][ceg] c z [ceg][ceg] || %37
[K:A] A z [Ace][Ace] A z [Ace][Ace] | A z [Ace][Ace] A z [Ace][Ace] | %39
 A z [Ace][Ace] A z [Ace][Ace] | E z [EGBd][EGBd] E z [EGBd][EGBd] | %41
 E z [EGBd][EGBd] E z [EGBd][EGBd] | E z [EGBd][EGBd] E z [EGBd][EGBd] | %43
 E z [EGBd][EGBd] E z [EGBd][EGBd] | A z [Ace][Ace] A z [Ace][Ace] | %45
 A z [Ace][Ace] A z [Ace][Ace] | A z [Ace][Ace] A z [Ace][Ace] | %47
 A z [Ace^^f][Acef] A z [Acef][Acef] | [dfa] z [dfa][dfa] [dfa] z [dfa][dfa] | %49
 [dfa] z [dfa][dfa] [^dfa^b] z [dfab][dfab] | [Ace]2 [EGB]2 F z [FA=ce][FAce] | %51
 [Bdf] z [Bdf][Bdf] =G z [GBd=f][GBdf] | [Ace]4 z4 |] %53

